!!!OTL: Verloren und doch lustig.
!!!OTL-incipit:IN LAUTERBACH
!!!COM: G. W. Fink
!!!ARE: Europa, Mitteleuropa, Deutschland
!!!SCT: F0183
!!!TXL: @@DE
!!!YEM: Copyright 1995, estate of Helmut Schaffrath.
**kern	**text
*ICvox	*
*Ivox	*
*clefG2	*
*M6/8	*
*k[f#c#g#]	*
*A:	*
!LO:TX:a:t=Munter.	!
{8e	1._Jn
=1	=1
8.e	Lau-
16a	-terbach
8a	.
8bq	.
8a	hab'
8g#	ich
8a	mein
=2	=2
8.e	Strumpfel
16b/	.
8b/	ver-
4b/}	-lor'n,
{8ee	ohn'
=3	=3
8.cc#	Strumpfel
16cc#	.
8cc#	da
8cc#q	.
8b/	geh'
8a/	ich
8b/	nit
=4	=4
4.a	heim.
4r}	.
{8e	1._Jn
=5	=5
8.e	Lau-
16a	-terbach
8a	.
8bq	.
8a	hab'
8g#	ich
8a	mein
=6	=6
8.e	Strumpfel
16b/	.
8b/	ver-
4b/}	-lor'n,
{8ee	ohn'
=7	=7
8.cc#	Strumpfel
16cc#	.
8cc#	da
8cc#q	.
8b/	geh'
8a/	ich
8b/	nit
=8	=8
4.a	heim.
4r}	.
{8e	Drum
=9	=9
8eq	.
8.ee	geh'
16ee	ich
8ee	erſt
8ee	wieder
8dd	.
8cc#	nach
=10	=10
8.e	Lau-
16dd	-terbach
8dd	.
4dd}	rein,
{8e	und
=11	=11
8.cc#	hol'
16cc#	mir
8cc#	mein
8cc#	Strumpf
8b	ʒu
8a	mein
=12	=12
4.b	Bein,
4r}	.
{8e	und
=13	=13
8.f#	hol'
16e	mir
8e	mein
8e	Strumpf
8cc#	ʒu
8b	mein
=14	=14
4.a	Bein.
4r}	.
{8e	Drum
=15	=15
8eq	.
8.ee	geh'
16ee	ich
8ee	erſt
8ee	wieder
8dd	.
8cc#	nach
=16	=16
8.e	Lau-
16dd	-terbach
8dd	.
4dd}	rein,
{8e	und
=17	=17
8.cc#	hol'
16cc#	mir
8cc#	mein
8cc#	Strumpf
8b	ʒu
8a	mein
=18	=18
4.b	Bein,
4r}	.
{8e	und
=19	=19
8.f#	hol'
16e	mir
8e	mein
8e	Strumpf
8cc#	ʒu
8b	mein
=20	=20
4.a	Bein.
4r}	.
==	==
!!!AGN: Scherz - Lied
!!!ONB: ESAC (Essen Associative Code) Database: FINK
!!!AMT: compound duple
!!!AIN: vox
!!!EED: Helmut Schaffrath
!!!EEV: 1.0
!!!GTL: Volkslieder
!!Text: Volkslied
!!!source: Musikalischer Hausschatz der Deutschen. Eine Sammlung von über 1000 Liedern und Gesängen mit Singstimmen und Klavierbegleitung. Leipzig, Litterarisches Verlags-Haus.
!!!page: 106
!!!URL-scan: https://www.digitale-sammlungen.de/en/view/bsb11144622?page=114,115
!!!ENC: Anna Maria Matuszewska
!!!EEV: 2024/26/07
*-	*-